X:65
M:C|
L:1/8
K:F
c|A/B/c Fc A2 AB|A/B/c Fc AGGB|A/B/c Fc A2 Ac|defd cAA:|
c|defd cAag|fdcA AGGc|defd cAfg|agfd cAAc|defd caga|~fdcA AGGA|
|:c|dFcF A2Ac|dFcF AGGc|dFcF A2Ac|defd cAA:|
c|defd cAag|fdcA AGGc|defd cAfg|agfc A2Ac|defd caga|fdcA AGGA|

